; generated by PrusaSlicer 2.2.0+win64 on 2020-10-01 at 14:42:44 UTC


;
;

;
;
; 

; external perimeters extrusion width = 0.45mm
; perimeters extrusion width = 0.45mm
; infill extrusion width = 0.45mm
; solid infill extrusion width = 0.45mm
; top infill extrusion width = 0.40mm
; first layer extrusion width = 0.42mm

M73 P0 R8
M201 X1250 Y1250 Z400 E5000 ; sets maximum accelerations, mm/sec^2
M203 X180 Y180 Z12 E80 ; sets maximum feedrates, mm/sec
M204 P1250 R1250 T1250 ; sets acceleration (P, T) and retract acceleration (R), mm/sec^2
M205 X8.00 Y8.00 Z2.00 E10.00 ; sets the jerk limits, mm/sec
M205 S0 T0 ; sets the minimum extruding and travel feed rate, mm/sec
M107
G90 ; use absolute coordinates
M83 ; extruder relative mode
M104 S170 ; set extruder temp for bed leveling
M140 S60 ; set bed temp
M109 R170 ; wait for bed leveling temp
M190 S60 ; wait for bed temp
G28 ; home all without mesh bed level
G29 ; mesh bed leveling 
M104 S215 ; set extruder temp
G92 E0.0
G1 Y-2.0 X179 F2400
G1 Z3 F720
M109 S215 ; wait for extruder temp

; intro line
G1 X170 F1000
G1 Z0.2 F720
G1 X110.0 E8.0 F900
M73 P1 R8
G1 X40.0 E10.0 F700
G92 E0.0

M221 S95 ; set flow
G21 ; set units to millimeters
G90 ; use absolute coordinates
M83 ; use relative distances for extrusion
M900 K0.2 ; Filament gcode LA 1.5
; ; Filament gcode LA 1.0
;BEFORE_LAYER_CHANGE
G92 E0.0
;0.2


G1 Z0.200 F9000.000
;AFTER_LAYER_CHANGE
;0.2
G1 E-3.20000 F4200.00000
G1 Z0.400 F9000.000
G1 X67.802 Y79.788
G1 Z0.200
G1 E3.20000 F2400.00000
M204 S800
G1 F1200.000
G1 X68.665 Y79.623 E0.02755
G1 X111.330 Y79.623 E1.33773
G1 X111.952 Y79.707 E0.01965
G1 X112.532 Y79.951 E0.01977
G1 X113.224 Y80.476 E0.02722
G1 X113.758 Y81.052 E0.02462
G1 X114.205 Y81.734 E0.02557
G1 X114.516 Y82.442 E0.02426
G1 X114.711 Y83.211 E0.02485
G1 X114.775 Y83.917 E0.02223
G1 X114.777 Y95.995 E0.37869
G1 X114.718 Y96.751 E0.02379
G1 X114.465 Y97.688 E0.03043
G1 X113.826 Y98.860 E0.04185
G1 X113.156 Y99.584 E0.03091
G1 X112.198 Y100.212 E0.03593
G1 X111.335 Y100.377 E0.02755
G1 X68.540 Y100.373 E1.34179
G1 X67.639 Y100.140 E0.02919
G1 X66.767 Y99.517 E0.03361
G1 X66.118 Y98.780 E0.03079
G1 X65.512 Y97.633 E0.04067
G1 X65.290 Y96.797 E0.02711
G1 X65.223 Y96.022 E0.02438
G1 X65.272 Y83.320 E0.39826
G1 X65.526 Y82.333 E0.03198
G1 X66.163 Y81.155 E0.04197
G1 X66.841 Y80.419 E0.03139
G1 X67.370 Y80.012 E0.02092
G1 X67.749 Y79.816 E0.01338
M204 S1250
G1 E-2.24000 F4200.00000
G1 F7200.000
G1 X68.665 Y79.623 E-0.51886
G1 X69.375 Y79.623 E-0.39314
G1 E-0.04800 F4200.00000
G1 Z0.400 F9000.000
G1 X96.166 Y93.037
G1 Z0.200
G1 E3.20000 F2400.00000
M204 S800
G1 F1200.000
G1 X96.276 Y92.728 E0.01028
G1 X96.435 Y92.440 E0.01031
G1 X96.636 Y92.192 E0.01000
G1 X96.876 Y91.981 E0.01005
G1 X97.149 Y91.812 E0.01005
G1 X97.447 Y91.693 E0.01005
G1 X97.760 Y91.625 E0.01005
G1 X98.038 Y91.614 E0.00871
G1 X98.392 Y91.650 E0.01116
G1 X98.705 Y91.746 E0.01027
G1 X98.991 Y91.891 E0.01005
G1 X99.249 Y92.081 E0.01005
G1 X99.470 Y92.313 E0.01005
G1 X99.650 Y92.578 E0.01003
G1 X99.764 Y92.831 E0.00871
G1 X99.862 Y93.174 E0.01120
G1 X99.890 Y93.500 E0.01026
G1 X99.863 Y93.819 E0.01005
G1 X99.782 Y94.130 E0.01005
G1 X99.650 Y94.422 E0.01005
G1 X99.470 Y94.687 E0.01005
G1 X99.249 Y94.919 E0.01005
G1 X98.991 Y95.109 E0.01005
G1 X98.705 Y95.254 E0.01005
G1 X98.398 Y95.348 E0.01005
G1 X98.080 Y95.388 E0.01005
G1 X97.760 Y95.375 E0.01005
G1 X97.447 Y95.307 E0.01005
G1 X97.149 Y95.188 E0.01005
G1 X96.876 Y95.019 E0.01005
G1 X96.636 Y94.808 E0.01005
G1 X96.434 Y94.558 E0.01005
G1 X96.278 Y94.278 E0.01005
G1 X96.167 Y93.965 E0.01044
G1 X96.109 Y93.511 E0.01434
G1 X96.159 Y93.097 E0.01308
M204 S1250
G1 X96.489 Y93.510 F9000.000
M204 S800
G1 F1200.000
G1 X96.536 Y93.124 E0.01218
G1 X96.621 Y92.884 E0.00800
G1 X96.749 Y92.652 E0.00830
G1 X96.909 Y92.454 E0.00797
G1 X97.101 Y92.285 E0.00804
G1 X97.320 Y92.150 E0.00804
G1 X97.557 Y92.055 E0.00804
G1 X97.808 Y92.001 E0.00804
G1 X98.026 Y91.992 E0.00684
G1 X98.316 Y92.022 E0.00914
G1 X98.564 Y92.098 E0.00812
G1 X98.792 Y92.213 E0.00804
G1 X98.999 Y92.365 E0.00804
G1 X99.176 Y92.550 E0.00804
G1 X99.319 Y92.763 E0.00803
G1 X99.410 Y92.961 E0.00683
G1 X99.490 Y93.242 E0.00917
G1 X99.511 Y93.500 E0.00811
G1 X99.490 Y93.755 E0.00804
G1 X99.425 Y94.004 E0.00804
G1 X99.320 Y94.237 E0.00804
G1 X99.176 Y94.450 E0.00804
G1 X98.999 Y94.635 E0.00804
G1 X98.792 Y94.787 E0.00804
G1 X98.564 Y94.902 E0.00804
G1 X98.318 Y94.978 E0.00804
G1 X98.064 Y95.010 E0.00804
G1 X97.808 Y94.999 E0.00804
G1 X97.557 Y94.945 E0.00804
G1 X97.320 Y94.850 E0.00804
G1 X97.101 Y94.715 E0.00804
G1 X96.909 Y94.546 E0.00804
G1 X96.748 Y94.346 E0.00804
G1 X96.623 Y94.123 E0.00804
G1 X96.536 Y93.877 E0.00818
G1 X96.496 Y93.569 E0.00972
M204 S1250
G1 X96.154 Y93.312 F9000.000
G1 E-2.24000 F4200.00000
G1 F7200.000
G1 X96.536 Y93.124 E-0.24764
G1 X96.621 Y92.884 E-0.14134
G1 X96.749 Y92.652 E-0.14674
G1 X96.909 Y92.454 E-0.14091
G1 X97.101 Y92.285 E-0.14207
G1 X97.245 Y92.197 E-0.09330
G1 E-0.04800 F4200.00000
G1 Z0.400 F9000.000
G1 X97.622 Y88.345
G1 Z0.200
G1 E3.20000 F2400.00000
M204 S800
G1 F1200.000
G1 X97.488 Y88.316 E0.00429
G1 X97.155 Y88.191 E0.01116
G1 X96.876 Y88.019 E0.01027
G1 X96.636 Y87.808 E0.01005
G1 X96.433 Y87.557 E0.01009
G1 X96.275 Y87.271 E0.01024
G1 X96.167 Y86.965 E0.01020
G1 X96.109 Y86.511 E0.01434
G1 X96.166 Y86.037 E0.01496
G1 X96.278 Y85.722 E0.01050
G1 X96.434 Y85.442 E0.01005
G1 X96.636 Y85.192 E0.01005
G1 X96.876 Y84.981 E0.01005
G1 X97.149 Y84.812 E0.01005
G1 X97.447 Y84.693 E0.01005
G1 X97.760 Y84.625 E0.01005
G1 X98.049 Y84.613 E0.00906
G1 X98.393 Y84.651 E0.01087
G1 X98.705 Y84.746 E0.01022
G1 X98.991 Y84.891 E0.01005
G1 X99.249 Y85.081 E0.01005
G1 X99.470 Y85.313 E0.01005
G1 X99.650 Y85.578 E0.01005
G1 X99.782 Y85.870 E0.01005
G1 X99.863 Y86.181 E0.01005
G1 X99.890 Y86.500 E0.01005
G1 X99.863 Y86.819 E0.01005
G1 X99.783 Y87.127 E0.00997
G1 X99.651 Y87.420 E0.01006
G1 X99.470 Y87.687 E0.01013
G1 X99.249 Y87.919 E0.01005
G1 X98.991 Y88.109 E0.01005
G1 X98.705 Y88.254 E0.01005
G1 X98.398 Y88.348 E0.01005
G1 X98.080 Y88.388 E0.01005
G1 X97.681 Y88.358 E0.01256
M204 S1250
G1 X97.760 Y87.989 F9000.000
M204 S800
G1 F1200.000
G1 X97.595 Y87.953 E0.00531
G1 X97.322 Y87.851 E0.00914
G1 X97.101 Y87.715 E0.00812
G1 X96.909 Y87.546 E0.00804
G1 X96.747 Y87.346 E0.00805
G1 X96.620 Y87.116 E0.00823
G1 X96.536 Y86.877 E0.00797
G1 X96.489 Y86.510 E0.01160
G1 X96.536 Y86.124 E0.01218
G1 X96.623 Y85.877 E0.00820
G1 X96.748 Y85.654 E0.00804
G1 X96.909 Y85.454 E0.00804
G1 X97.101 Y85.285 E0.00804
G1 X97.320 Y85.150 E0.00804
G1 X97.557 Y85.055 E0.00804
G1 X97.808 Y85.001 E0.00804
G1 X98.036 Y84.991 E0.00715
G1 X98.317 Y85.022 E0.00885
G1 X98.564 Y85.098 E0.00810
G1 X98.792 Y85.213 E0.00804
G1 X98.999 Y85.365 E0.00804
G1 X99.176 Y85.550 E0.00804
G1 X99.320 Y85.763 E0.00804
G1 X99.425 Y85.996 E0.00804
G1 X99.490 Y86.245 E0.00804
G1 X99.511 Y86.500 E0.00804
G1 X99.490 Y86.755 E0.00804
G1 X99.426 Y87.001 E0.00797
G1 X99.321 Y87.236 E0.00805
G1 X99.176 Y87.450 E0.00810
G1 X98.999 Y87.635 E0.00804
G1 X98.792 Y87.787 E0.00804
G1 X98.564 Y87.902 E0.00804
G1 X98.318 Y87.978 E0.00804
G1 X98.064 Y88.010 E0.00804
G1 X97.819 Y88.000 E0.00769
M204 S1250
G1 X97.657 Y88.123 F9000.000
G1 E-2.24000 F4200.00000
G1 F7200.000
G1 X97.595 Y87.953 E-0.12698
G1 X97.322 Y87.851 E-0.16160
G1 X97.101 Y87.715 E-0.14345
G1 X96.909 Y87.546 E-0.14207
G1 X96.747 Y87.346 E-0.14234
G1 X96.620 Y87.116 E-0.14543
G1 X96.590 Y87.031 E-0.05012
G1 E-0.04800 F4200.00000
G1 Z0.400 F9000.000
G1 X83.882 Y86.664
G1 Z0.200
G1 E3.20000 F2400.00000
M204 S800
G1 F1200.000
G1 X83.829 Y86.976 E0.00992
G1 X83.724 Y87.272 E0.00983
G1 X83.565 Y87.560 E0.01031
G1 X83.364 Y87.808 E0.01000
G1 X83.124 Y88.019 E0.01005
G1 X82.851 Y88.188 E0.01005
G1 X82.553 Y88.307 E0.01005
G1 X82.240 Y88.375 E0.01005
G1 X81.920 Y88.388 E0.01005
G1 X81.602 Y88.348 E0.01005
G1 X81.295 Y88.254 E0.01005
G1 X81.009 Y88.109 E0.01005
G1 X80.751 Y87.919 E0.01005
G1 X80.530 Y87.687 E0.01005
G1 X80.350 Y87.421 E0.01006
G1 X80.217 Y87.127 E0.01011
G1 X80.137 Y86.819 E0.00998
G1 X80.110 Y86.500 E0.01005
G1 X80.137 Y86.181 E0.01005
G1 X80.210 Y85.901 E0.00906
G1 X80.347 Y85.583 E0.01087
G1 X80.530 Y85.313 E0.01022
G1 X80.751 Y85.081 E0.01005
G1 X81.009 Y84.891 E0.01005
G1 X81.295 Y84.746 E0.01005
G1 X81.602 Y84.652 E0.01005
G1 X81.888 Y84.616 E0.00906
G1 X82.235 Y84.624 E0.01087
G1 X82.553 Y84.693 E0.01022
G1 X82.851 Y84.812 E0.01005
G1 X83.124 Y84.981 E0.01005
G1 X83.364 Y85.192 E0.01005
G1 X83.566 Y85.442 E0.01005
G1 X83.722 Y85.722 E0.01005
G1 X83.829 Y86.024 E0.01005
G1 X83.882 Y86.336 E0.00992
G1 X83.882 Y86.604 E0.00843
M204 S1250
G1 X83.505 Y86.604 F9000.000
M204 S800
G1 F1200.000
G1 X83.463 Y86.881 E0.00877
G1 X83.379 Y87.117 E0.00784
G1 X83.251 Y87.348 E0.00830
G1 X83.091 Y87.546 E0.00797
G1 X82.899 Y87.715 E0.00804
G1 X82.680 Y87.850 E0.00804
G1 X82.443 Y87.945 E0.00804
G1 X82.192 Y87.999 E0.00804
G1 X81.936 Y88.010 E0.00804
G1 X81.682 Y87.978 E0.00804
G1 X81.436 Y87.902 E0.00804
G1 X81.208 Y87.787 E0.00804
G1 X81.001 Y87.635 E0.00804
G1 X80.824 Y87.450 E0.00804
G1 X80.680 Y87.237 E0.00804
G1 X80.574 Y87.002 E0.00810
G1 X80.510 Y86.755 E0.00797
G1 X80.489 Y86.500 E0.00804
G1 X80.510 Y86.245 E0.00804
G1 X80.568 Y86.024 E0.00715
G1 X80.679 Y85.764 E0.00885
G1 X80.824 Y85.550 E0.00810
G1 X81.001 Y85.365 E0.00804
G1 X81.208 Y85.213 E0.00804
G1 X81.436 Y85.098 E0.00804
G1 X81.682 Y85.022 E0.00804
G1 X81.908 Y84.993 E0.00715
G1 X82.190 Y85.000 E0.00885
G1 X82.443 Y85.055 E0.00810
G1 X82.680 Y85.150 E0.00804
G1 X82.899 Y85.285 E0.00804
G1 X83.091 Y85.454 E0.00804
G1 X83.252 Y85.654 E0.00804
G1 X83.377 Y85.877 E0.00804
G1 X83.463 Y86.119 E0.00804
G1 X83.505 Y86.368 E0.00790
G1 X83.505 Y86.544 E0.00555
M204 S1250
G1 X83.737 Y86.762 F9000.000
G1 E-2.24000 F4200.00000
G1 F7200.000
G1 X83.463 Y86.881 E-0.18790
G1 X83.379 Y87.117 E-0.13851
G1 X83.251 Y87.348 E-0.14672
G1 X83.091 Y87.546 E-0.14091
G1 X82.899 Y87.715 E-0.14207
G1 X82.680 Y87.850 E-0.14207
G1 X82.657 Y87.859 E-0.01382
G1 E-0.04800 F4200.00000
G1 Z0.400 F9000.000
G1 X82.403 Y91.660
G1 Z0.200
G1 E3.20000 F2400.00000
M204 S800
G1 F1200.000
G1 X82.553 Y91.693 E0.00483
G1 X82.851 Y91.812 E0.01005
G1 X83.124 Y91.981 E0.01005
G1 X83.364 Y92.192 E0.01005
G1 X83.565 Y92.441 E0.01003
G1 X83.712 Y92.702 E0.00937
G1 X83.828 Y93.021 E0.01065
G1 X83.882 Y93.336 E0.01002
G1 X83.882 Y93.664 E0.01031
G1 X83.829 Y93.976 E0.00992
G1 X83.722 Y94.278 E0.01005
G1 X83.566 Y94.558 E0.01005
G1 X83.364 Y94.808 E0.01005
G1 X83.124 Y95.019 E0.01005
G1 X82.851 Y95.188 E0.01005
G1 X82.553 Y95.307 E0.01005
G1 X82.240 Y95.375 E0.01005
G1 X81.920 Y95.388 E0.01005
G1 X81.602 Y95.348 E0.01005
G1 X81.295 Y95.254 E0.01005
G1 X81.009 Y95.109 E0.01005
G1 X80.751 Y94.919 E0.01005
G1 X80.530 Y94.687 E0.01005
G1 X80.350 Y94.422 E0.01005
G1 X80.218 Y94.130 E0.01005
G1 X80.137 Y93.819 E0.01005
G1 X80.110 Y93.500 E0.01005
G1 X80.137 Y93.181 E0.01005
G1 X80.210 Y92.901 E0.00905
G1 X80.346 Y92.584 E0.01082
G1 X80.530 Y92.313 E0.01028
G1 X80.751 Y92.081 E0.01005
G1 X81.009 Y91.891 E0.01005
G1 X81.295 Y91.746 E0.01005
G1 X81.602 Y91.652 E0.01005
G1 X81.877 Y91.617 E0.00871
G1 X82.233 Y91.624 E0.01116
G1 X82.344 Y91.648 E0.00356
M204 S1250
G1 X82.265 Y92.016 F9000.000
M204 S800
G1 F1200.000
G1 X82.443 Y92.055 E0.00571
G1 X82.680 Y92.150 E0.00804
G1 X82.899 Y92.285 E0.00804
G1 X83.091 Y92.454 E0.00804
G1 X83.252 Y92.653 E0.00803
G1 X83.368 Y92.860 E0.00742
G1 X83.463 Y93.118 E0.00862
G1 X83.505 Y93.368 E0.00794
G1 X83.505 Y93.632 E0.00830
G1 X83.463 Y93.881 E0.00790
G1 X83.377 Y94.123 E0.00804
G1 X83.252 Y94.346 E0.00804
G1 X83.091 Y94.546 E0.00804
G1 X82.899 Y94.715 E0.00804
G1 X82.680 Y94.850 E0.00804
G1 X82.443 Y94.945 E0.00804
G1 X82.192 Y94.999 E0.00804
G1 X81.936 Y95.010 E0.00804
G1 X81.682 Y94.978 E0.00804
G1 X81.436 Y94.902 E0.00804
G1 X81.208 Y94.787 E0.00804
G1 X81.001 Y94.635 E0.00804
G1 X80.824 Y94.450 E0.00804
G1 X80.680 Y94.237 E0.00804
G1 X80.575 Y94.004 E0.00804
G1 X80.510 Y93.755 E0.00804
G1 X80.489 Y93.500 E0.00804
G1 X80.510 Y93.245 E0.00804
G1 X80.568 Y93.024 E0.00715
G1 X80.678 Y92.766 E0.00880
G1 X80.824 Y92.550 E0.00815
G1 X81.001 Y92.365 E0.00804
G1 X81.208 Y92.213 E0.00804
G1 X81.436 Y92.098 E0.00804
G1 X81.682 Y92.022 E0.00804
G1 X81.898 Y91.995 E0.00684
G1 X82.206 Y92.004 E0.00966
M204 S1250
G1 X82.376 Y91.873 F9000.000
G1 E-2.24000 F4200.00000
G1 F7200.000
G1 X82.443 Y92.055 E-0.13413
G1 X82.680 Y92.150 E-0.14207
G1 X82.899 Y92.285 E-0.14207
G1 X83.091 Y92.454 E-0.14207
G1 X83.252 Y92.653 E-0.14193
G1 X83.368 Y92.860 E-0.13119
G1 X83.417 Y92.993 E-0.07855
G1 E-0.04800 F4200.00000
G1 Z0.400 F9000.000
G1 X101.213 Y85.213
G1 Z0.200
G1 E3.20000 F2400.00000
M204 S800
G1 F1200.000
G1 X101.213 Y94.787 E0.30019
G1 X108.829 Y94.787 E0.23881
G1 X108.600 Y95.054 E0.01103
G1 X108.460 Y95.304 E0.00899
G1 X108.365 Y95.574 E0.00899
G1 X108.317 Y95.853 E0.00885
G1 X108.317 Y96.149 E0.00928
G1 X108.366 Y96.428 E0.00890
G1 X108.463 Y96.698 E0.00899
G1 X108.606 Y96.952 E0.00915
G1 X108.844 Y97.215 E0.01111
G1 X71.150 Y97.220 E1.18185
G1 X71.394 Y96.952 E0.01136
G1 X71.537 Y96.698 E0.00915
G1 X71.634 Y96.428 E0.00899
G1 X71.683 Y96.149 E0.00890
G1 X71.683 Y95.853 E0.00928
G1 X71.635 Y95.574 E0.00885
G1 X71.540 Y95.304 E0.00899
G1 X71.400 Y95.054 E0.00899
G1 X71.171 Y94.787 E0.01103
G1 X78.787 Y94.787 E0.23881
G1 X78.787 Y85.213 E0.30019
G1 X71.171 Y85.213 E0.23881
G1 X71.400 Y84.946 E0.01103
G1 X71.540 Y84.696 E0.00899
G1 X71.635 Y84.426 E0.00899
G1 X71.683 Y84.147 E0.00885
G1 X71.683 Y83.851 E0.00928
G1 X71.634 Y83.572 E0.00890
G1 X71.537 Y83.302 E0.00899
G1 X71.394 Y83.048 E0.00915
G1 X71.150 Y82.780 E0.01136
G1 X86.213 Y82.787 E0.47228
G1 X86.213 Y87.787 E0.15677
G1 X93.787 Y87.787 E0.23748
G1 X93.787 Y82.787 E0.15677
G1 X108.850 Y82.780 E0.47228
G1 X108.606 Y83.048 E0.01136
G1 X108.463 Y83.302 E0.00915
G1 X108.361 Y83.585 E0.00941
G1 X108.308 Y83.999 E0.01311
G1 X108.360 Y84.413 E0.01308
G1 X108.460 Y84.696 E0.00940
G1 X108.600 Y84.946 E0.00899
G1 X108.829 Y85.213 E0.01103
G1 X101.273 Y85.213 E0.23693
M204 S1250
G1 E-2.24000 F4200.00000
G1 F7200.000
G1 X101.263 Y86.859 E-0.91200
G1 E-0.04800 F4200.00000
G1 Z0.400 F9000.000
G1 X108.688 Y84.000
G1 Z0.200
G1 E3.20000 F2400.00000
M204 S800
G1 F1200.000
G1 X108.730 Y83.673 E0.01032
G1 X108.807 Y83.460 E0.00712
G1 X108.917 Y83.264 E0.00703
G1 X109.062 Y83.093 E0.00704
G1 X109.232 Y82.953 E0.00690
G1 X109.425 Y82.839 E0.00702
G1 X109.645 Y82.768 E0.00726
G1 X110.023 Y82.739 E0.01187
G1 X110.252 Y82.753 E0.00720
G1 X110.468 Y82.798 E0.00693
G1 X110.674 Y82.893 E0.00710
G1 X110.855 Y83.019 E0.00693
G1 X111.014 Y83.175 E0.00697
G1 X111.142 Y83.360 E0.00704
G1 X111.235 Y83.563 E0.00700
G1 X111.292 Y83.778 E0.00698
G1 X111.311 Y84.000 E0.00699
G1 X111.293 Y84.222 E0.00698
G1 X111.237 Y84.437 E0.00698
G1 X111.145 Y84.640 E0.00698
G1 X111.020 Y84.824 E0.00697
G1 X110.866 Y84.984 E0.00697
G1 X110.688 Y85.117 E0.00697
G1 X110.489 Y85.217 E0.00697
G1 X110.276 Y85.282 E0.00697
G1 X110.056 Y85.310 E0.00697
G1 X109.833 Y85.301 E0.00697
G1 X109.616 Y85.254 E0.00697
G1 X109.410 Y85.171 E0.00697
G1 X109.220 Y85.054 E0.00697
G1 X109.053 Y84.907 E0.00697
G1 X108.913 Y84.734 E0.00697
G1 X108.805 Y84.540 E0.00697
G1 X108.729 Y84.326 E0.00712
G1 X108.696 Y84.059 E0.00843
M204 S1250
G1 X108.406 Y83.831 F9000.000
G1 E-2.24000 F4200.00000
G1 F7200.000
G1 X108.730 Y83.673 E-0.21470
G1 X108.807 Y83.460 E-0.12588
G1 X108.917 Y83.264 E-0.12418
G1 X109.062 Y83.093 E-0.12450
G1 X109.232 Y82.953 E-0.12198
G1 X109.425 Y82.839 E-0.12415
G1 X109.556 Y82.796 E-0.07661
G1 E-0.04800 F4200.00000
G1 Z0.400 F9000.000
G1 X109.833 Y94.699
G1 Z0.200
G1 E3.20000 F2400.00000
M204 S800
G1 F1200.000
G1 X110.029 Y94.691 E0.00614
G1 X110.274 Y94.717 E0.00774
G1 X110.489 Y94.783 E0.00704
G1 X110.688 Y94.883 E0.00697
G1 X110.866 Y95.016 E0.00697
G1 X111.020 Y95.176 E0.00697
G1 X111.145 Y95.360 E0.00697
G1 X111.237 Y95.563 E0.00698
G1 X111.293 Y95.778 E0.00698
G1 X111.311 Y96.000 E0.00698
G1 X111.292 Y96.222 E0.00699
G1 X111.235 Y96.437 E0.00698
G1 X111.142 Y96.640 E0.00700
