; generated by PrusaSlicer 2.4.1+win64 on 2022-06-14 at 16:32:15 UTC

; 

; external perimeters extrusion width = 0.45mm
; perimeters extrusion width = 0.45mm
; infill extrusion width = 0.45mm
; solid infill extrusion width = 0.45mm
; top infill extrusion width = 0.40mm
; first layer extrusion width = 0.42mm

M73 P0 R23
M73 Q0 S23
M201 X1000 Y1000 Z200 E5000 ; sets maximum accelerations, mm/sec^2
M203 X200 Y200 Z12 E120 ; sets maximum feedrates, mm / sec
M204 P1250 R1250 T1250 ; sets acceleration (P, T) and retract acceleration (R), mm/sec^2
M205 X8.00 Y8.00 Z0.40 E4.50 ; sets the jerk limits, mm/sec
M205 S0 T0 ; sets the minimum extruding and travel feed rate, mm/sec
M107
;TYPE:Custom
M862.3 P "MK3" ; printer model check
M862.1 P0.4 ; nozzle diameter check
M115 U3.10.1 ; tell printer latest fw version
G90 ; use absolute coordinates
M83 ; extruder relative mode
M104 S215 ; set extruder temp
M140 S60 ; set bed temp
M190 S60 ; wait for bed temp
M109 S215 ; wait for extruder temp
G28 W ; home all without mesh bed level
G80 ; mesh bed leveling
G1 Z0.2 F720
G1 Y-3 F1000 ; go outside print area
G92 E0
G1 X60 E9 F1000 ; intro line
G1 X100 E12.5 F1000 ; intro line
G92 E0
M221 S95

; Don't change E values below. Excessive value can damage the printer.

M907 E538 ; set extruder motor current
G21 ; set units to millimeters
G90 ; use absolute coordinates
M83 ; use relative distances for extrusion
M900 K0.05 ; Filament gcode LA 1.5
M900 K30 ; Filament gcode LA 1.0
M107
;LAYER_CHANGE
;Z:0.2
;HEIGHT:0.2
;BEFORE_LAYER_CHANGE
G92 E0.0
;0.2


G1 E-.8 F2100
G1 Z.4 F720
;AFTER_LAYER_CHANGE
;0.2
G1 X78.753 Y64.677 F10800
G1 Z.2 F720
G1 E.8 F2100
M204 S800
;TYPE:Skirt/Brim
;WIDTH:0.42
G1 F1200
G1 X79.746 Y63.741 E.04278
G1 X80.812 Y63.489 E.03435
G1 X169.188 Y63.489 E2.77097
G1 X170.495 Y63.881 E.04278
G1 X171.247 Y64.677 E.03435
G1 X172.247 Y66.41 E.06271
G1 X172.561 Y67.737 E.04278
G1 X172.247 Y68.787 E.03435
G1 X128.059 Y145.323 E2.77097
G1 X127.066 Y146.259 E.04278
M73 P1 R23
M73 Q1 S23
G1 X126 Y146.511 E.03435
G1 X124 Y146.511 E.06271
G1 X122.693 Y146.119 E.04278
G1 X121.941 Y145.323 E.03435
G1 X77.753 Y68.787 E2.77097
G1 X77.439 Y67.459 E.04278
G1 X77.753 Y66.41 E.03435
G1 X78.723 Y64.729 E.06083
M204 S1000
; printing object triangulo.STL id:0 copy 0
;WIPE_START
G1 F8640
G1 X79.746 Y63.741 E-.32835
G1 X80.812 Y63.489 E-.25294
G1 X81.586 Y63.489 E-.17871
;WIPE_END
G1 E-.04 F2100
G1 Z.6 F720
G1 X121.698 Y90.677 F10800
G1 Z.2 F720
G1 E.8 F2100
M204 S800
;TYPE:Perimeter
G1 F1200
G1 X121.885 Y90.378 E.01105
G1 X122.098 Y90.098 E.01105
G1 X122.337 Y89.839 E.01105
G1 X122.599 Y89.603 E.01105
G1 X122.882 Y89.392 E.01105
G1 X123.183 Y89.209 E.01105
G1 X123.5 Y89.055 E.01105
G1 X123.83 Y88.93 E.01105
G1 X124.169 Y88.837 E.01105
G1 X124.523 Y88.775 E.01125
G1 X125.024 Y88.745 E.01575
G1 X125.395 Y88.766 E.01164
G1 X125.744 Y88.819 E.01107
G1 X126.086 Y88.904 E.01105
G1 X126.419 Y89.021 E.01105
G1 X126.745 Y89.171 E.01126
G1 X127.185 Y89.438 E.01614
G1 X127.468 Y89.66 E.01127
G1 X127.725 Y89.901 E.01105
G1 X127.957 Y90.166 E.01105
G1 X128.165 Y90.451 E.01105
G1 X128.344 Y90.754 E.01105
G1 X128.495 Y91.073 E.01105
G1 X128.616 Y91.404 E.01105
G1 X128.705 Y91.745 E.01105
G1 X128.763 Y92.096 E.01116
G1 X128.788 Y92.533 E.0137
G1 X128.763 Y92.969 E.0137
G1 X128.705 Y93.32 E.01116
G1 X128.616 Y93.661 E.01105
G1 X128.495 Y93.992 E.01105
G1 X128.344 Y94.311 E.01105
G1 X128.165 Y94.614 E.01105
G1 X127.957 Y94.899 E.01105
G1 X127.725 Y95.164 E.01105
G1 X127.463 Y95.41 E.01127
G1 X127.05 Y95.718 E.01614
G1 X126.739 Y95.898 E.01127
G1 X126.419 Y96.045 E.01105
G1 X126.086 Y96.161 E.01105
G1 X125.744 Y96.247 E.01105
G1 X125.396 Y96.3 E.01105
G1 X125.044 Y96.32 E.01105
G1 X124.685 Y96.308 E.01125
G1 X124.189 Y96.233 E.01575
G1 X123.83 Y96.135 E.01164
G1 X123.5 Y96.011 E.01108
G1 X123.183 Y95.856 E.01105
G1 X122.882 Y95.673 E.01105
G1 X122.599 Y95.462 E.01105
G1 X122.337 Y95.227 E.01105
G1 X122.098 Y94.967 E.01105
G1 X121.885 Y94.687 E.01105
G1 X121.698 Y94.388 E.01105
G1 X121.54 Y94.073 E.01105
G1 X121.411 Y93.745 E.01105
G1 X121.312 Y93.4 E.01127
G1 X121.229 Y92.892 E.01614
G1 X121.212 Y92.533 E.01127
G1 X121.229 Y92.181 E.01105
G1 X121.278 Y91.832 E.01105
G1 X121.361 Y91.482 E.01127
G1 X121.537 Y90.998 E.01614
G1 X121.671 Y90.731 E.00939
M204 S1000
G1 X122.027 Y90.862 F10800
M204 S800
;TYPE:External perimeter
G1 F1200
G1 X122.195 Y90.593 E.00995
G1 X122.388 Y90.341 E.00995
G1 X122.603 Y90.107 E.00995
G1 X122.838 Y89.895 E.00995
G1 X123.093 Y89.705 E.00995
G1 X123.364 Y89.54 E.00995
G1 X123.649 Y89.401 E.00995
G1 X123.946 Y89.289 E.00995
G1 X124.252 Y89.205 E.00995
G1 X124.567 Y89.15 E.01002
G1 X125.025 Y89.123 E.01439
G1 X125.356 Y89.141 E.01039
G1 X125.67 Y89.189 E.00996
G1 X125.978 Y89.266 E.00995
G1 X126.278 Y89.371 E.00995
G1 X126.568 Y89.504 E.01003
G1 X126.97 Y89.749 E.01477
G1 X127.222 Y89.946 E.01003
G1 X127.453 Y90.164 E.00995
G1 X127.663 Y90.402 E.00995
G1 X127.849 Y90.659 E.00995
G1 X128.011 Y90.932 E.00995
G1 X128.147 Y91.218 E.00995
G1 X128.255 Y91.517 E.00995
G1 X128.336 Y91.824 E.00995
G1 X128.387 Y92.138 E.00999
G1 X128.41 Y92.533 E.0124
G1 X128.387 Y92.927 E.0124
G1 X128.336 Y93.242 E.00999
G1 X128.255 Y93.549 E.00995
G1 X128.147 Y93.847 E.00995
G1 X128.011 Y94.134 E.00995
G1 X127.849 Y94.407 E.00995
G1 X127.663 Y94.663 E.00995
G1 X127.453 Y94.902 E.00995
G1 X127.221 Y95.121 E.01003
G1 X126.843 Y95.402 E.01477
G1 X126.566 Y95.562 E.01003
G1 X126.278 Y95.695 E.00995
G1 X125.978 Y95.8 E.00995
G1 X125.67 Y95.876 E.00995
G1 X125.356 Y95.924 E.00995
G1 X125.04 Y95.943 E.00995
G1 X124.72 Y95.932 E.01002
G1 X124.266 Y95.863 E.01439
G1 X123.946 Y95.776 E.01039
G1 X123.649 Y95.664 E.00996
G1 X123.364 Y95.525 E.00995
G1 X123.093 Y95.36 E.00995
G1 X122.838 Y95.17 E.00995
G1 X122.603 Y94.958 E.00995
G1 X122.388 Y94.725 E.00995
G1 X122.195 Y94.472 E.00995
G1 X122.027 Y94.203 E.00995
G1 X121.885 Y93.92 E.00995
G1 X121.769 Y93.624 E.00995
G1 X121.681 Y93.317 E.01003
G1 X121.605 Y92.852 E.01476
G1 X121.59 Y92.533 E.01003
G1 X121.604 Y92.216 E.00995
G1 X121.649 Y91.901 E.00995
G1 X121.722 Y91.59 E.01003
G1 X121.883 Y91.148 E.01476
G1 X122 Y90.916 E.00815
M204 S1000
G1 X121.863 Y90.59 F10800
;WIPE_START
G1 F8640
G1 X122.195 Y90.593 E-.08708
G1 X122.388 Y90.341 E-.07327
G1 X122.603 Y90.107 E-.07327
G1 X122.838 Y89.895 E-.07327
G1 X123.093 Y89.705 E-.07327
G1 X123.364 Y89.54 E-.07328
G1 X123.649 Y89.401 E-.07327
G1 X123.946 Y89.289 E-.07327
G1 X124.252 Y89.205 E-.07328
G1 X124.567 Y89.15 E-.0738
G1 X124.623 Y89.147 E-.01295
;WIPE_END
G1 E-.04 F2100
G1 Z.6 F720
G1 X126.713 Y100.61 F10800
G1 Z.2 F720
G1 E.8 F2100
M204 S800
;TYPE:Perimeter
G1 F1200
G1 X128.003 Y100.176 E.04269
G1 X128.698 Y99.865 E.02386
G1 X129.362 Y99.491 E.02389
G1 X129.988 Y99.057 E.02389
G1 X130.571 Y98.566 E.02389
G1 X131.106 Y98.024 E.02389
G1 X131.589 Y97.434 E.02389
G1 X132.015 Y96.803 E.02389
G1 X132.384 Y96.128 E.0241
G1 X132.537 Y95.794 E.01152
G1 X132.809 Y95.075 E.0241
G1 X133.011 Y94.34 E.02389
G1 X133.144 Y93.59 E.02389
G1 X133.207 Y92.831 E.02389
G1 X133.199 Y92.069 E.02389
G1 X133.121 Y91.312 E.02386
G1 X132.851 Y89.978 E.04269
G1 X161.764 Y73.285 E1.04676
G1 X162.671 Y74.192 E.04023
G1 X127.952 Y134.327 E2.17715
G1 X126.713 Y133.995 E.04023
M73 P2 R23
M73 Q2 S23
G1 X126.713 Y100.67 E1.04488
M204 S1000
G1 X127.09 Y100.881 F10800
M204 S800
;TYPE:External perimeter
G1 F1200
G1 X128.141 Y100.528 E.03476
G1 X128.868 Y100.202 E.02498
G1 X129.562 Y99.811 E.02499
G1 X130.217 Y99.357 E.02499
G1 X130.827 Y98.844 E.02499
G1 X131.387 Y98.276 E.02499
G1 X131.892 Y97.66 E.02499
G1 X132.337 Y96.999 E.02499
G1 X132.721 Y96.298 E.02506
G1 X132.885 Y95.94 E.01234
G1 X133.168 Y95.192 E.02506
G1 X133.379 Y94.424 E.02499
G1 X133.518 Y93.639 E.02499
G1 X133.584 Y92.845 E.02499
G1 X133.576 Y92.048 E.02499
G1 X133.494 Y91.255 E.02498
G1 X133.275 Y90.169 E.03476
G1 X161.701 Y73.756 E1.02919
G1 X162.2 Y74.255 E.02209
G1 X127.77 Y133.888 E2.159
G1 X127.09 Y133.705 E.02209
G1 X127.09 Y100.941 E1.02731
M204 S1000
G1 X127.002 Y100.491 F10800
;WIPE_START
G1 F8640
G1 X128.141 Y100.528 E-.26073
G1 X128.868 Y100.202 E-.18393
G1 X129.562 Y99.811 E-.18403
G1 X130.029 Y99.487 E-.13131
;WIPE_END
G1 E-.04 F2100
G1 Z.6 F720
G1 X131.138 Y87.011 F10800
G1 Z.2 F720
G1 E.8 F2100
M204 S800
;TYPE:Perimeter
G1 F1200
M73 P2 R22
G1 X130.117 Y86.11 E.04269
G1 X129.501 Y85.664 E.02386
G1 X128.845 Y85.276 E.02389
G1 X128.156 Y84.951 E.02389
G1 X127.44 Y84.691 E.02389
G1 X126.703 Y84.499 E.02389
G1 X125.951 Y84.376 E.02389
G1 X125.191 Y84.323 E.02389
G1 X124.429 Y84.34 E.02389
G1 X123.672 Y84.429 E.02389
G1 X122.92 Y84.588 E.0241
G1 X122.567 Y84.689 E.01152
G1 X121.844 Y84.951 E.0241
G1 X121.155 Y85.276 E.02389
G1 X120.499 Y85.664 E.02389
G1 X119.883 Y86.11 E.02386
G1 X118.862 Y87.011 E.04269
G1 X89.949 Y70.318 E1.04676
G1 X90.282 Y69.079 E.04023
M73 P3 R22
M73 Q3 S22
G1 X159.718 Y69.079 E2.17715
G1 X160.051 Y70.318 E.04023
G1 X131.19 Y86.981 E1.04488
M204 S1000
G1 X131.185 Y86.549 F10800
M204 S800
;TYPE:External perimeter
G1 F1200
G1 X130.353 Y85.815 E.03476
G1 X129.708 Y85.348 E.02498
G1 X129.022 Y84.943 E.02499
G1 X128.301 Y84.603 E.02499
G1 X127.552 Y84.331 E.02499
G1 X126.781 Y84.13 E.02499
G1 X125.994 Y84.001 E.02499
G1 X125.199 Y83.945 E.02499
G1 X124.403 Y83.964 E.02499
G1 X123.611 Y84.056 E.02499
G1 X122.829 Y84.222 E.02506
G1 X122.45 Y84.33 E.01234
G1 X121.699 Y84.603 E.02506
G1 X120.978 Y84.943 E.02499
G1 X120.292 Y85.348 E.02499
G1 X119.647 Y85.815 E.02498
G1 X118.815 Y86.549 E.03476
G1 X90.389 Y70.136 E1.02919
G1 X90.571 Y69.456 E.02209
G1 X159.429 Y69.456 E2.159
G1 X159.611 Y70.136 E.02209
G1 X131.237 Y86.519 E1.02731
M204 S1000
G1 X130.891 Y86.82 F10800
;WIPE_START
G1 F8640
G1 X130.353 Y85.815 E-.26074
G1 X129.708 Y85.348 E-.18393
G1 X129.022 Y84.943 E-.18403
G1 X128.508 Y84.7 E-.13131
;WIPE_END
G1 E-.04 F2100
G1 Z.6 F720
G1 X117.149 Y89.978 F10800
G1 Z.2 F720
G1 E.8 F2100
M204 S800
;TYPE:Perimeter
G1 F1200
G1 X116.879 Y91.312 E.04269
G1 X116.801 Y92.069 E.02386
G1 X116.793 Y92.831 E.02389
G1 X116.857 Y93.597 E.0241
G1 X116.912 Y93.96 E.01152
M73 Q4 S22
G1 X117.082 Y94.71 E.0241
G1 X117.318 Y95.435 E.02389
G1 X117.62 Y96.134 E.02389
G1 X117.985 Y96.803 E.02389
G1 X118.411 Y97.434 E.02389
G1 X118.894 Y98.024 E.02389
G1 X119.429 Y98.566 E.02389
M73 P4 R22
G1 X120.012 Y99.057 E.02389
G1 X120.638 Y99.491 E.02389
G1 X121.302 Y99.865 E.02389
G1 X121.996 Y100.176 E.02386
G1 X123.287 Y100.61 E.04269
G1 X123.287 Y133.995 E1.04676
G1 X122.048 Y134.327 E.04023
G1 X87.329 Y74.192 E2.17715
G1 X88.236 Y73.285 E.04023
G1 X117.097 Y89.948 E1.04488
M204 S1000
G1 X116.725 Y90.169 F10800
M204 S800
;TYPE:External perimeter
G1 F1200
G1 X116.506 Y91.255 E.03476
G1 X116.424 Y92.048 E.02498
G1 X116.416 Y92.845 E.02499
G1 X116.482 Y93.641 E.02506
G1 X116.542 Y94.03 E.01235
G1 X116.718 Y94.81 E.02506
G1 X116.964 Y95.568 E.02499
G1 X117.28 Y96.3 E.02499
G1 X117.663 Y96.999 E.02499
G1 X118.108 Y97.66 E.02499
G1 X118.613 Y98.276 E.02499
G1 X119.173 Y98.844 E.02499
G1 X119.783 Y99.357 E.02499
G1 X120.438 Y99.811 E.02499
G1 X121.132 Y100.202 E.02499
G1 X121.859 Y100.528 E.02498
G1 X122.91 Y100.881 E.03476
G1 X122.91 Y133.705 E1.02919
G1 X122.23 Y133.888 E.02209
G1 X87.8 Y74.255 E2.159
G1 X88.299 Y73.756 E.02209
G1 X116.673 Y90.139 E1.02731
M204 S1000
G1 X117.107 Y90.287 F10800
;WIPE_START
M73 P5 R22
M73 Q5 S22
G1 F8640
G1 X116.506 Y91.255 E-.26074
G1 X116.424 Y92.048 E-.18393
G1 X116.416 Y92.845 E-.18403
G1 X116.463 Y93.411 E-.13131
;WIPE_END
G1 E-.04 F2100
G1 Z.6 F720
G1 X80.721 Y67.598 F10800
G1 Z.2 F720
G1 E.8 F2100
M204 S800
;TYPE:Perimeter
G1 F1200
G1 X81.266 Y66.653 E.03421
G1 X168.734 Y66.653 E2.74247
G1 X169.279 Y67.598 E.03421
G1 X125.546 Y143.347 E2.74247
G1 X124.454 Y143.347 E.03421
G1 X80.751 Y67.65 E2.74059
M204 S1000
G1 X80.285 Y67.598 F10800
M204 S800
;TYPE:External perimeter
M73 P6 R22
M73 Q6 S22
G1 F1200
G1 X81.049 Y66.276 E.04786
G1 X168.951 Y66.276 E2.75612
G1 X169.715 Y67.598 E.04786
G1 X125.763 Y143.724 E2.75612
G1 X124.237 Y143.724 E.04786
G1 X80.315 Y67.65 E2.75424
M204 S1000
G1 X80.661 Y67.459 F10800
;WIPE_START
G1 F8640
G1 X81.049 Y66.276 E-.35962
G1 X82.783 Y66.276 E-.40038
;WIPE_END
M73 Q7 S22
G1 E-.04 F2100
G1 Z.6 F720
G1 X168.995 Y67.864 F10800
G1 Z.2 F720
M73 P7 R22
G1 E.8 F2100
M204 S800
;TYPE:Solid infill
;WIDTH:0.420488
G1 F1200
G1 X168.067 Y66.936 E.04121
G1 X167.533 Y66.936 E.01676
G1 X168.675 Y68.078 E.05073
G1 X168.48 Y68.417 E.01227
G1 X166.999 Y66.936 E.06576
G1 X166.465 Y66.936 E.01676
G1 X168.284 Y68.755 E.08079
G1 X168.089 Y69.094 E.01227
M73 P7 R21
G1 X165.931 Y66.936 E.09582
G1 X165.397 Y66.936 E.01676
G1 X167.894 Y69.433 E.11085
G1 X167.698 Y69.771 E.01227
G1 X164.863 Y66.936 E.12588
G1 X164.329 Y66.936 E.01676
G1 X167.503 Y70.11 E.14091
G1 X167.307 Y70.448 E.01227
G1 X163.795 Y66.936 E.15594
G1 X163.261 Y66.936 E.01676
G1 X167.112 Y70.787 E.17097
G1 X166.916 Y71.125 E.01227
G1 X162.727 Y66.936 E.186
G1 X162.193 Y66.936 E.01676
M73 Q7 S21
G1 X166.721 Y71.464 E.20103
G1 X166.525 Y71.802 E.01227
G1 X161.659 Y66.936 E.21606
G1 X161.125 Y66.936 E.01676
G1 X166.33 Y72.141 E.23109
G1 X166.135 Y72.479 E.01227
G1 X160.591 Y66.936 E.24612
G1 X160.057 Y66.936 E.01676
G1 X165.939 Y72.818 E.26115
G1 X165.744 Y73.156 E.01227
G1 X159.523 Y66.936 E.27618
G1 X158.989 Y66.936 E.01676
G1 X165.548 Y73.495 E.29121
G1 X165.353 Y73.833 E.01227
G1 X158.455 Y66.936 E.30624
G1 X157.921 Y66.936 E.01676
G1 X165.157 Y74.172 E.32127
G1 X164.962 Y74.51 E.01227
G1 X160.187 Y69.736 E.21199
G1 X160.375 Y70.457 E.02342
G1 X164.766 Y74.849 E.19497
G1 X164.571 Y75.187 E.01227
G1 X160.037 Y70.653 E.20132
G1 X159.698 Y70.848 E.01227
G1 X164.376 Y75.526 E.20768
G1 X164.18 Y75.864 E.01227
G1 X162.818 Y74.503 E.06046
G1 X162.623 Y74.841 E.01227
G1 X163.985 Y76.203 E.06046
G1 X163.789 Y76.541 E.01227
G1 X162.427 Y75.18 E.06046
G1 X162.232 Y75.518 E.01227
G1 X163.594 Y76.88 E.06046
G1 X163.398 Y77.218 E.01227
G1 X162.037 Y75.857 E.06046
G1 X161.841 Y76.195 E.01227
G1 X163.203 Y77.557 E.06046
G1 X163.007 Y77.895 E.01227
G1 X161.646 Y76.534 E.06046
G1 X161.45 Y76.872 E.01227
G1 X162.812 Y78.234 E.06046
G1 X162.617 Y78.573 E.01227
G1 X161.255 Y77.211 E.06046
G1 X161.059 Y77.549 E.01227
G1 X162.421 Y78.911 E.06046
G1 X162.226 Y79.25 E.01227
G1 X160.864 Y77.888 E.06046
G1 X160.668 Y78.226 E.01227
G1 X162.03 Y79.588 E.06046
G1 X161.835 Y79.927 E.01227
G1 X160.473 Y78.565 E.06046
G1 X160.278 Y78.903 E.01227
G1 X161.639 Y80.265 E.06046
G1 X161.444 Y80.604 E.01227
G1 X160.082 Y79.242 E.06046
G1 X159.887 Y79.58 E.01227
G1 X161.248 Y80.942 E.06046
G1 X161.053 Y81.281 E.01227
G1 X159.691 Y79.919 E.06046
G1 X159.496 Y80.257 E.01227
G1 X160.858 Y81.619 E.06046
G1 X160.662 Y81.958 E.01227
G1 X159.3 Y80.596 E.06046
G1 X159.105 Y80.934 E.01227
G1 X160.467 Y82.296 E.06046
G1 X160.271 Y82.635 E.01227
G1 X158.909 Y81.273 E.06046
G1 X158.714 Y81.611 E.01227
G1 X160.076 Y82.973 E.06046
G1 X159.88 Y83.312 E.01227
G1 X158.519 Y81.95 E.06046
G1 X158.323 Y82.288 E.01227
G1 X159.685 Y83.65 E.06046
G1 X159.489 Y83.989 E.01227
G1 X158.128 Y82.627 E.06046
G1 X157.932 Y82.966 E.01227
G1 X159.294 Y84.327 E.06046
G1 X159.099 Y84.666 E.01227
G1 X157.737 Y83.304 E.06046
G1 X157.541 Y83.643 E.01227
G1 X158.903 Y85.004 E.06046
G1 X158.708 Y85.343 E.01227
G1 X157.346 Y83.981 E.06046
G1 X157.15 Y84.32 E.01227
G1 X158.512 Y85.681 E.06046
G1 X158.317 Y86.02 E.01227
G1 X156.955 Y84.658 E.06046
G1 X156.76 Y84.997 E.01227
G1 X158.121 Y86.358 E.06046
G1 X157.926 Y86.697 E.01227
G1 X156.564 Y85.335 E.06046
G1 X156.369 Y85.674 E.01227
G1 X157.73 Y87.035 E.06046
G1 X157.535 Y87.374 E.01227
G1 X156.173 Y86.012 E.06046
G1 X155.978 Y86.351 E.01227
G1 X157.34 Y87.713 E.06046
G1 X157.144 Y88.051 E.01227
G1 X155.782 Y86.689 E.06046
G1 X155.587 Y87.028 E.01227
G1 X156.949 Y88.39 E.06046
G1 X156.753 Y88.728 E.01227
G1 X155.391 Y87.366 E.06046
G1 X155.196 Y87.705 E.01227
G1 X156.558 Y89.067 E.06046
G1 X156.362 Y89.405 E.01227
G1 X155.001 Y88.043 E.06046
G1 X154.805 Y88.382 E.01227
M73 Q8 S21
G1 X156.167 Y89.744 E.06046
G1 X155.971 Y90.082 E.01227
G1 X154.61 Y88.72 E.06046
